icons-dark/actions/22/edit-delete.svg

<svg xmlns="http://www.w3.org/2000/svg" viewBox="0 0 22 22">
 <defs>
  <clipPath>
   <path d="m0 706.465h1490.926v-706.465h-1490.926v706.465"/>
  </clipPath>
  <clipPath>
   <path d="m22.1953 686.117h1447.7347v-667.1902h-1447.7347v667.1902"/>
  </clipPath>
 </defs>
 <path d="m8 3v1 1h1v-1h4v1h1v-1-1h-6m-4 3v1h14v-1h-14m2 2v11h1 9v-1-10h-1v10h-8v-10h-1" style="fill:#da4453"/>
</svg>

<svg xmlns="http://www.w3.org/2000/svg" viewBox="0 0 22 22">
    <defs id="defs3051">
        <style type="text/css" id="current-color-scheme">
        .ColorScheme-NegativeText {
            color:#da4453;
        }
        </style>
    </defs>
    <path
     style="fill:currentColor;fill-opacity:1;stroke:none" 
     class="ColorScheme-NegativeText"
        d="M8 3v2h1V4h4v1h1V3H8M4 6v1h14V6H4m2 2v11h10V8h-1v10H7V8H6"/>
</svg>
